apps/frontend/public/images/invisible.svg

<svg fill="none" height="1062" viewBox="0 0 1062 1062" width="1062" xmlns="http://www.w3.org/2000/svg" xmlns:xlink="http://www.w3.org/1999/xlink"><filter id="a" color-interpolation-filters="sRGB" filterUnits="userSpaceOnUse" height="818.529" width="769.14" x="146.146" y="107.439"><feFlood flood-opacity="0" result="BackgroundImageFix"/><feBlend in="SourceGraphic" in2="BackgroundImageFix" mode="normal" result="shape"/><feColorMatrix in="SourceAlpha" result="hardAlpha" type="matrix" values="0 0 0 0 0 0 0 0 0 0 0 0 0 0 0 0 0 0 127 0"/><feOffset dy="-50.7978"/><feGaussianBlur stdDeviation="17.2196"/><feComposite in2="hardAlpha" k2="-1" k3="1" operator="arithmetic"/><feColorMatrix type="matrix" values="0 0 0 0 0.717647 0 0 0 0 0.717647 0 0 0 0 0.819608 0 0 0 0.87 0"/><feBlend in2="shape" mode="normal" result="effect1_innerShadow_5520_39262"/><feGaussianBlur result="effect2_foregroundBlur_5520_39262" stdDeviation="3.44392"/></filter><filter id="b" color-interpolation-filters="sRGB" filterUnits="userSpaceOnUse" height="79.4562" width="79.4567" x="401.491" y="284.499"><feFlood flood-opacity="0" result="BackgroundImageFix"/><feBlend in="SourceGraphic" in2="BackgroundImageFix" mode="normal" result="shape"/><feGaussianBlur result="effect1_foregroundBlur_5520_39262" stdDeviation="1.72196"/></filter><filter id="c" color-interpolation-filters="sRGB" filterUnits="userSpaceOnUse" height="25.047" width="25.0473" x="419.034" y="300.939"><feFlood flood-opacity="0" result="BackgroundImageFix"/><feBlend in="SourceGraphic" in2="BackgroundImageFix" mode="normal" result="shape"/><feGaussianBlur result="effect1_foregroundBlur_5520_39262" stdDeviation="1.72196"/></filter><filter id="d" color-interpolation-filters="sRGB" filterUnits="userSpaceOnUse" height="79.4562" width="79.4567" x="575.304" y="284.499"><feFlood flood-opacity="0" result="BackgroundImageFix"/><feBlend in="SourceGraphic" in2="BackgroundImageFix" mode="normal" result="shape"/><feGaussianBlur result="effect1_foregroundBlur_5520_39262" stdDeviation="1.72196"/></filter><filter id="e" color-interpolation-filters="sRGB" filterUnits="userSpaceOnUse" height="25.047" width="25.047" x="592.881" y="300.939"><feFlood flood-opacity="0" result="BackgroundImageFix"/><feBlend in="SourceGraphic" in2="BackgroundImageFix" mode="normal" result="shape"/><feGaussianBlur result="effect1_foregroundBlur_5520_39262" stdDeviation="1.72196"/></filter><filter id="f" color-interpolation-filters="sRGB" filterUnits="userSpaceOnUse" height="185.172" width="233.12" x="314.797" y="481.817"><feFlood flood-opacity="0" result="BackgroundImageFix"/><feColorMatrix in="SourceAlpha" result="hardAlpha" type="matrix" values="0 0 0 0 0 0 0 0 0 0 0 0 0 0 0 0 0 0 127 0"/><feOffset dy="10.3317"/><feGaussianBlur stdDeviation="8.60979"/><feComposite in2="hardAlpha" operator="out"/><feColorMatrix type="matrix" values="0 0 0 0 0.717647 0 0 0 0 0.717647 0 0 0 0 0.819608 0 0 0 0.48 0"/><feBlend in2="BackgroundImageFix" mode="normal" result="effect1_dropShadow_5520_39262"/><feBlend in="SourceGraphic" in2="effect1_dropShadow_5520_39262" mode="normal" result="shape"/><feColorMatrix in="SourceAlpha" result="hardAlpha" type="matrix" values="0 0 0 0 0 0 0 0 0 0 0 0 0 0 0 0 0 0 127 0"/><feOffset dy="-8.60979"/><feGaussianBlur stdDeviation="6.88783"/><feComposite in2="hardAlpha" k2="-1" k3="1" operator="arithmetic"/><feColorMatrix type="matrix" values="0 0 0 0 0.717091 0 0 0 0 0.717091 0 0 0 0 0.820999 0 0 0 0.28 0"/><feBlend in2="shape" mode="normal" result="effect2_innerShadow_5520_39262"/><feGaussianBlur result="effect3_foregroundBlur_5520_39262" stdDeviation="1.72196"/></filter><filter id="g" color-interpolation-filters="sRGB" filterUnits="userSpaceOnUse" height="185.172" width="233.12" x="513.479" y="481.817"><feFlood flood-opacity="0" result="BackgroundImageFix"/><feColorMatrix in="SourceAlpha" result="hardAlpha" type="matrix" values="0 0 0 0 0 0 0 0 0 0 0 0 0 0 0 0 0 0 127 0"/><feOffset dy="10.3317"/><feGaussianBlur stdDeviation="8.60979"/><feComposite in2="hardAlpha" operator="out"/><feColorMatrix type="matrix" values="0 0 0 0 0.717647 0 0 0 0 0.717647 0 0 0 0 0.819608 0 0 0 0.48 0"/><feBlend in2="BackgroundImageFix" mode="normal" result="effect1_dropShadow_5520_39262"/><feBlend in="SourceGraphic" in2="effect1_dropShadow_5520_39262" mode="normal" result="shape"/><feColorMatrix in="SourceAlpha" result="hardAlpha" type="matrix" values="0 0 0 0 0 0 0 0 0 0 0 0 0 0 0 0 0 0 127 0"/><feOffset dy="-8.60979"/><feGaussianBlur stdDeviation="6.88783"/><feComposite in2="hardAlpha" k2="-1" k3="1" operator="arithmetic"/><feColorMatrix type="matrix" values="0 0 0 0 0.717091 0 0 0 0 0.717091 0 0 0 0 0.820999 0 0 0 0.28 0"/><feBlend in2="shape" mode="normal" result="effect2_innerShadow_5520_39262"/><feGaussianBlur result="effect3_foregroundBlur_5520_39262" stdDeviation="1.72196"/></filter><filter id="h" color-interpolation-filters="sRGB" filterUnits="userSpaceOnUse" height="59.1271" width="141.34" x="458.743" y="395.355"><feFlood flood-opacity="0" result="BackgroundImageFix"/><feBlend in="SourceGraphic" in2="BackgroundImageFix" mode="normal" result="shape"/><feGaussianBlur result="effect1_foregroundBlur_5520_39262" stdDeviation="1.72196"/></filter><radialGradient id="i" cx="0" cy="0" gradientTransform="matrix(0 754.474 -694.116 0 530.689 174.498)" gradientUnits="userSpaceOnUse" r="1"><stop offset="0" stop-color="#faf8f8"/><stop offset=".376887" stop-color="#e4e3f1"/><stop offset=".7467" stop-color="#e0dfed"/><stop offset="1" stop-color="#d4d2e1"/></radialGradient><g filter="url(#a)"><path d="m825.775 854.11c-50.949.925-50.332 22.853-74.145 42.006s-48.208 27.171-95.936-1.37c-19.461-11.971-39.857-22.352-60.988-31.043h-.205c-19.599-7.674-34.263-10.278-45.776-9.25-21.277 1.61-39.916 9.627-57.356 19.427-36.935 20.831-68.525 49.955-108.305 44.541-34.913-4.899-53.484-25.354-68.765-43.445-10.279-12.266-19.222-23.47-30.597-27.924-5.045-1.651-10.368-2.28-15.658-1.85-3.426 0-7.195.411-11.135.89-36.97 3.906-90.489 20.387-101.658-16.103-14.391-47.317 45.055-75.584 69.553-133.865 21.552-51.189 49.03-322.071 49.03-322.071 6.163-63.562 35.771-122.553 83.056-165.475 47.284-42.922 108.857-66.7 172.717-66.7s125.432 23.778 172.717 66.7c47.284 42.922 76.893 101.913 83.055 165.475 0 0 21.894 255.943 40.396 299.8 23.984 57.185 75.687 102.514 81.991 138.353s-35.53 41.219-81.991 41.904z" fill="url(#i)"/></g><g filter="url(#b)"><path d="m441.22 360.512c20.039 0 36.284-16.245 36.284-36.284 0-20.04-16.245-36.285-36.284-36.285-20.04 0-36.285 16.245-36.285 36.285 0 20.039 16.245 36.284 36.285 36.284z" fill="#3f004f"/></g><g filter="url(#c)"><path d="m431.558 322.542c5.015 0 9.08-4.065 9.08-9.08 0-5.014-4.065-9.079-9.08-9.079s-9.08 4.065-9.08 9.079c0 5.015 4.065 9.08 9.08 9.08z" fill="#fff"/></g><g filter="url(#d)"><path d="m615.033 360.512c20.039 0 36.284-16.245 36.284-36.284 0-20.04-16.245-36.285-36.284-36.285-20.04 0-36.285 16.245-36.285 36.285 0 20.039 16.245 36.284 36.285 36.284z" fill="#3f004f"/></g><g filter="url(#e)"><path d="m605.405 322.542c5.014 0 9.079-4.065 9.079-9.08 0-5.014-4.065-9.079-9.079-9.079-5.015 0-9.08 4.065-9.08 9.079 0 5.015 4.065 9.08 9.08 9.08z" fill="#fff"/></g><g filter="url(#f)"><path d="m339.712 569.882c14.966 25.895 60.792 54.748 101.802 63.345 60.103 12.621 80.023 5.399 86.732-16.163 8.12-26.204-4.576-39.478-28.59-52.546-26.147-14.237-46.067-24.967-68.429-48.798-22.363-23.832-51.228-33.254-77.856-17.607-23.154 13.549-27.111 48.591-13.659 71.769z" fill="#e2e1ef"/></g><g filter="url(#g)"><path d="m721.684 569.882c-14.966 25.895-60.792 54.748-101.801 63.345-60.104 12.621-80.024 5.399-86.733-16.163-8.119-26.204 4.576-39.478 28.59-52.546 26.147-14.237 46.067-24.967 68.429-48.798 22.363-23.832 51.228-33.254 77.857-17.607 23.154 13.549 27.11 48.591 13.658 71.769z" fill="#e2e1ef"/></g><g filter="url(#h)"><path d="m585.492 425.243c-.093-4.857.844-9.678 2.748-14.146 1.905-4.467 4.734-8.478 8.301-11.768.239-.21 0-.629-.269-.509-4.267 2.072-7.903 5.253-10.529 9.21-2.625 3.958-4.145 8.548-4.401 13.293-4.032 2.125-22.665 11.072-52.018 11.072-28.786 0-47.33-8.588-51.839-10.952-1.194-15.202-10.869-20.947-14.93-22.623-.269 0-.478.329-.239.509 3.583 3.134 6.429 7.024 8.334 11.39 1.905 4.367 2.822 9.102 2.685 13.866.089 4.856-.849 9.677-2.754 14.144-1.904 4.466-4.731 8.478-8.295 11.771-.239.209 0 .628.239.478 4.15-1.915 14.214-8.319 14.93-24.478 16.416 6.877 34.032 10.418 51.824 10.418 17.793 0 35.408-3.541 51.824-10.418.507 16.638 10.78 22.743 14.93 24.538.299 0 .508-.299.269-.509-3.554-3.153-6.366-7.055-8.235-11.428-1.869-4.372-2.748-9.104-2.575-13.858z" fill="#c8cce8"/></g></svg>

<svg width="1062" height="1062" viewBox="0 0 1062 1062" fill="none" xmlns="http://www.w3.org/2000/svg">
<g filter="url(#filter0_if_5520_39262)">
<path d="M825.775 854.11C774.826 855.035 775.443 876.963 751.63 896.116C727.817 915.269 703.422 923.287 655.694 894.746C636.233 882.775 615.837 872.394 594.706 863.703H594.501C574.902 856.029 560.238 853.425 548.725 854.453C527.448 856.063 508.809 864.08 491.369 873.88C454.434 894.711 422.844 923.835 383.064 918.421C348.151 913.522 329.58 893.067 314.299 874.976C304.02 862.71 295.077 851.506 283.702 847.052C278.657 845.401 273.334 844.772 268.044 845.202C264.618 845.202 260.849 845.613 256.909 846.092C219.939 849.998 166.42 866.479 155.251 829.989C140.86 782.672 200.306 754.405 224.804 696.124C246.356 644.935 273.834 374.053 273.834 374.053C279.997 310.491 309.605 251.5 356.89 208.578C404.174 165.656 465.747 141.878 529.607 141.878C593.467 141.878 655.039 165.656 702.324 208.578C749.608 251.5 779.217 310.491 785.379 374.053C785.379 374.053 807.273 629.996 825.775 673.853C849.759 731.038 901.462 776.367 907.766 812.206C914.07 848.045 872.236 853.425 825.775 854.11Z" fill="url(#paint0_radial_5520_39262)"/>
</g>
<g filter="url(#filter1_f_5520_39262)">
<path d="M441.22 360.512C461.259 360.512 477.504 344.267 477.504 324.228C477.504 304.188 461.259 287.943 441.22 287.943C421.18 287.943 404.935 304.188 404.935 324.228C404.935 344.267 421.18 360.512 441.22 360.512Z" fill="#3F004F"/>
</g>
<g filter="url(#filter2_f_5520_39262)">
<path d="M431.558 322.542C436.573 322.542 440.638 318.477 440.638 313.462C440.638 308.448 436.573 304.383 431.558 304.383C426.543 304.383 422.478 308.448 422.478 313.462C422.478 318.477 426.543 322.542 431.558 322.542Z" fill="white"/>
</g>
<g filter="url(#filter3_f_5520_39262)">
<path d="M615.033 360.512C635.072 360.512 651.317 344.267 651.317 324.228C651.317 304.188 635.072 287.943 615.033 287.943C594.993 287.943 578.748 304.188 578.748 324.228C578.748 344.267 594.993 360.512 615.033 360.512Z" fill="#3F004F"/>
</g>
<g filter="url(#filter4_f_5520_39262)">
<path d="M605.405 322.542C610.419 322.542 614.484 318.477 614.484 313.462C614.484 308.448 610.419 304.383 605.405 304.383C600.39 304.383 596.325 308.448 596.325 313.462C596.325 318.477 600.39 322.542 605.405 322.542Z" fill="white"/>
</g>
<g filter="url(#filter5_dif_5520_39262)">
<path d="M339.712 569.882C354.678 595.777 400.504 624.63 441.514 633.227C501.617 645.848 521.537 638.626 528.246 617.064C536.366 590.86 523.67 577.586 499.656 564.518C473.509 550.281 453.589 539.551 431.227 515.72C408.864 491.888 379.999 482.466 353.371 498.113C330.217 511.662 326.26 546.704 339.712 569.882Z" fill="#E2E1EF"/>
</g>
<g filter="url(#filter6_dif_5520_39262)">
<path d="M721.684 569.882C706.718 595.777 660.892 624.63 619.883 633.227C559.779 645.848 539.859 638.626 533.15 617.064C525.031 590.86 537.726 577.586 561.74 564.518C587.887 550.281 607.807 539.551 630.169 515.72C652.532 491.888 681.397 482.466 708.026 498.113C731.18 511.662 735.136 546.704 721.684 569.882Z" fill="#E2E1EF"/>
</g>
<g filter="url(#filter7_f_5520_39262)">
<path d="M585.492 425.243C585.399 420.386 586.336 415.565 588.24 411.097C590.145 406.63 592.974 402.619 596.541 399.329C596.78 399.119 596.541 398.7 596.272 398.82C592.005 400.892 588.369 404.073 585.743 408.03C583.118 411.988 581.598 416.578 581.342 421.323C577.31 423.448 558.677 432.395 529.324 432.395C500.538 432.395 481.994 423.807 477.485 421.443C476.291 406.241 466.616 400.496 462.555 398.82C462.286 398.82 462.077 399.149 462.316 399.329C465.899 402.463 468.745 406.353 470.65 410.719C472.555 415.086 473.472 419.821 473.335 424.585C473.424 429.441 472.486 434.262 470.581 438.729C468.677 443.195 465.85 447.207 462.286 450.5C462.047 450.709 462.286 451.128 462.525 450.978C466.675 449.063 476.739 442.659 477.455 426.5C493.871 433.377 511.487 436.918 529.279 436.918C547.072 436.918 564.687 433.377 581.103 426.5C581.61 443.138 591.883 449.243 596.033 451.038C596.332 451.038 596.541 450.739 596.302 450.529C592.748 447.376 589.936 443.474 588.067 439.101C586.198 434.729 585.319 429.997 585.492 425.243Z" fill="#C8CCE8"/>
</g>
<defs>
<filter id="filter0_if_5520_39262" x="146.146" y="107.439" width="769.14" height="818.529" filterUnits="userSpaceOnUse" color-interpolation-filters="sRGB">
<feFlood flood-opacity="0" result="BackgroundImageFix"/>
<feBlend mode="normal" in="SourceGraphic" in2="BackgroundImageFix" result="shape"/>
<feColorMatrix in="SourceAlpha" type="matrix" values="0 0 0 0 0 0 0 0 0 0 0 0 0 0 0 0 0 0 127 0" result="hardAlpha"/>
<feOffset dy="-50.7978"/>
<feGaussianBlur stdDeviation="17.2196"/>
<feComposite in2="hardAlpha" operator="arithmetic" k2="-1" k3="1"/>
<feColorMatrix type="matrix" values="0 0 0 0 0.717647 0 0 0 0 0.717647 0 0 0 0 0.819608 0 0 0 0.87 0"/>
<feBlend mode="normal" in2="shape" result="effect1_innerShadow_5520_39262"/>
<feGaussianBlur stdDeviation="3.44392" result="effect2_foregroundBlur_5520_39262"/>
</filter>
<filter id="filter1_f_5520_39262" x="401.491" y="284.499" width="79.4567" height="79.4562" filterUnits="userSpaceOnUse" color-interpolation-filters="sRGB">
<feFlood flood-opacity="0" result="BackgroundImageFix"/>
<feBlend mode="normal" in="SourceGraphic" in2="BackgroundImageFix" result="shape"/>
<feGaussianBlur stdDeviation="1.72196" result="effect1_foregroundBlur_5520_39262"/>
</filter>
<filter id="filter2_f_5520_39262" x="419.034" y="300.939" width="25.0473" height="25.047" filterUnits="userSpaceOnUse" color-interpolation-filters="sRGB">
<feFlood flood-opacity="0" result="BackgroundImageFix"/>
<feBlend mode="normal" in="SourceGraphic" in2="BackgroundImageFix" result="shape"/>
<feGaussianBlur stdDeviation="1.72196" result="effect1_foregroundBlur_5520_39262"/>
</filter>
<filter id="filter3_f_5520_39262" x="575.304" y="284.499" width="79.4567" height="79.4562" filterUnits="userSpaceOnUse" color-interpolation-filters="sRGB">
<feFlood flood-opacity="0" result="BackgroundImageFix"/>
<feBlend mode="normal" in="SourceGraphic" in2="BackgroundImageFix" result="shape"/>
<feGaussianBlur stdDeviation="1.72196" result="effect1_foregroundBlur_5520_39262"/>
</filter>
<filter id="filter4_f_5520_39262" x="592.881" y="300.939" width="25.047" height="25.047" filterUnits="userSpaceOnUse" color-interpolation-filters="sRGB">
<feFlood flood-opacity="0" result="BackgroundImageFix"/>
<feBlend mode="normal" in="SourceGraphic" in2="BackgroundImageFix" result="shape"/>
<feGaussianBlur stdDeviation="1.72196" result="effect1_foregroundBlur_5520_39262"/>
</filter>
<filter id="filter5_dif_5520_39262" x="314.797" y="481.817" width="233.12" height="185.172" filterUnits="userSpaceOnUse" color-interpolation-filters="sRGB">
<feFlood flood-opacity="0" result="BackgroundImageFix"/>
<feColorMatrix in="SourceAlpha" type="matrix" values="0 0 0 0 0 0 0 0 0 0 0 0 0 0 0 0 0 0 127 0" result="hardAlpha"/>
<feOffset dy="10.3317"/>
<feGaussianBlur stdDeviation="8.60979"/>
<feComposite in2="hardAlpha" operator="out"/>
<feColorMatrix type="matrix" values="0 0 0 0 0.717647 0 0 0 0 0.717647 0 0 0 0 0.819608 0 0 0 0.48 0"/>
<feBlend mode="normal" in2="BackgroundImageFix" result="effect1_dropShadow_5520_39262"/>
<feBlend mode="normal" in="SourceGraphic" in2="effect1_dropShadow_5520_39262" result="shape"/>
<feColorMatrix in="SourceAlpha" type="matrix" values="0 0 0 0 0 0 0 0 0 0 0 0 0 0 0 0 0 0 127 0" result="hardAlpha"/>
<feOffset dy="-8.60979"/>
<feGaussianBlur stdDeviation="6.88783"/>
<feComposite in2="hardAlpha" operator="arithmetic" k2="-1" k3="1"/>
<feColorMatrix type="matrix" values="0 0 0 0 0.717091 0 0 0 0 0.717091 0 0 0 0 0.820999 0 0 0 0.28 0"/>
<feBlend mode="normal" in2="shape" result="effect2_innerShadow_5520_39262"/>
<feGaussianBlur stdDeviation="1.72196" result="effect3_foregroundBlur_5520_39262"/>
</filter>
<filter id="filter6_dif_5520_39262" x="513.479" y="481.817" width="233.12" height="185.172" filterUnits="userSpaceOnUse" color-interpolation-filters="sRGB">
<feFlood flood-opacity="0" result="BackgroundImageFix"/>
<feColorMatrix in="SourceAlpha" type="matrix" values="0 0 0 0 0 0 0 0 0 0 0 0 0 0 0 0 0 0 127 0" result="hardAlpha"/>
<feOffset dy="10.3317"/>
<feGaussianBlur stdDeviation="8.60979"/>
<feComposite in2="hardAlpha" operator="out"/>
<feColorMatrix type="matrix" values="0 0 0 0 0.717647 0 0 0 0 0.717647 0 0 0 0 0.819608 0 0 0 0.48 0"/>
<feBlend mode="normal" in2="BackgroundImageFix" result="effect1_dropShadow_5520_39262"/>
<feBlend mode="normal" in="SourceGraphic" in2="effect1_dropShadow_5520_39262" result="shape"/>
<feColorMatrix in="SourceAlpha" type="matrix" values="0 0 0 0 0 0 0 0 0 0 0 0 0 0 0 0 0 0 127 0" result="hardAlpha"/>
<feOffset dy="-8.60979"/>
<feGaussianBlur stdDeviation="6.88783"/>
<feComposite in2="hardAlpha" operator="arithmetic" k2="-1" k3="1"/>
<feColorMatrix type="matrix" values="0 0 0 0 0.717091 0 0 0 0 0.717091 0 0 0 0 0.820999 0 0 0 0.28 0"/>
<feBlend mode="normal" in2="shape" result="effect2_innerShadow_5520_39262"/>
<feGaussianBlur stdDeviation="1.72196" result="effect3_foregroundBlur_5520_39262"/>
</filter>
<filter id="filter7_f_5520_39262" x="458.743" y="395.355" width="141.34" height="59.1271" filterUnits="userSpaceOnUse" color-interpolation-filters="sRGB">
<feFlood flood-opacity="0" result="BackgroundImageFix"/>
<feBlend mode="normal" in="SourceGraphic" in2="BackgroundImageFix" result="shape"/>
<feGaussianBlur stdDeviation="1.72196" result="effect1_foregroundBlur_5520_39262"/>
</filter>
<radialGradient id="paint0_radial_5520_39262" cx="0" cy="0" r="1" gradientUnits="userSpaceOnUse" gradientTransform="translate(530.689 174.498) rotate(90) scale(754.474 694.116)">
<stop stop-color="#FAF8F8"/>
<stop offset="0.376887" stop-color="#E4E3F1"/>
<stop offset="0.7467" stop-color="#E0DFED"/>
<stop offset="1" stop-color="#D4D2E1"/>
</radialGradient>
</defs>
</svg>
